X:1
T: When the Kye comes Hame
C:
R:Strathspey
Q: 128
K:D
M:4/4
L:1/16
|:d3c B3c BA3 F3E|FA3 A3B A4 ((3A2B2c2) |d3c B3c BA3 F3E|FB3 d3c B6 A2|
d3c B3c BA3 F3E|FA3 A3B A4 ((3A2B2c2) |d3c B3c BA3 F3E|FB3 d3c B6 A2|
A3B d3e f4 ed3|e3d ef3 A4 d3e|f3e d3c BA3 F3E|FB3 d3c B6 A2|
A3B d3e f4 ed3|e3d ef3 A4 d3e|f3e d3c BA3 F3E|FB3 d3c d8:|
